X: 39
T: Tennessee Waltz   [G high+low]
C: Pee Wee King [Julius Frank Anthony Kuczynski] (1914-2000)
%date:1947
M: 3/4
L: 1/8
K: G
[GG,][AA,] |\
"G"[B2B,2] [d2D2] [GG,][AA,] | [B2B,2] [d2D2] [gG][aA] |\
"G7"[b2B2] [d'3b3d3B3] [aA] | "C"[g2G2] [e3E3] [fF] || "G"[g2G2] [d2D2] [B2B,2] |\
[1 "(Em)"[e2E2] [d2D2] [B2B,2] | "D(Am)"[A4A,4] [AA,][BB,] | "D7"[A4A,4] :|\
[2  "D7"[c2C2] [B2B,2] [A2A,2] | "G"[G4G,4] [GG,][AA,] | "G"[G4G,4] |]
[gG][aA] |\
"G"[b2B2] [d'3b3d3B3] [bB] | "B7"[a4A4] [bB][aA] | "C"[g2G2] [e2E2] [g2G2] | "G"[d4D4] [eE][fF] ||\
"G"[g2G2] [d2D2] [B2B,2] | "(Em)"[e2E2] [d2D2] [B2B,2] | "D(Am)"[A4A,4] [AA,][BB,] | "D7"[A4A,4] |]
[GG,][AA,] |\
"G"[B2B,2] [d2D2] [GG,][AA,] | [B2B,2] [d2D2] [gG][aA] | "G7"[b2B2] [d'3b3d3B3] [aA] | "C"[g2G2] [e3E3] [fF] "^I"||\
"G"[g2G2] [d2D2] [B2B,2] | "D7"[c2C2] [B2B,2] [A2A,2] | "G"[G4G,4] [GG,][AA,] | [G4G,4] |]
